X: 42079
T: Waltz Quadrille
R: waltz
M: 3/4
K: Gmajor
|:G>A|B2 ^A2 B2|c2 B2 c2|d2 g2- g>B|d4 d>e|
d2 A2- A>B|c2- c>B c>^c|d2 G2- G>A|B2- B>D G>A|
B2- B>^A B2|(3cdc (3BcB c2|d2 g2- g>B|d4 d>d|
d2 f2- f>a|f2 e2 d>d|1 d2 E2- E>F|G4:|2 d2 e2 f2|g4||
|:a2|b2- b>^a b2|a2- a>^g a2|(3gag (3fgf (3efe|d2- d>^c d>e|
d2 A2- A>B|c2- c>B c>^c|(3efe d2- d>G|B2- B>d g>a|
b2- b>^a b2|a2 (3aba ^g>a|g2 (3fgf e2|d2- d>^c d>e|
d2 f2- f>a|f2 e2 d>^c|1 d2 e2 f2|g4:|2 d2 e2 F2|G4||

